X: 1
T:Cape Breton Symphony's Welcome to Shetland, The
M:4/4
L:1/8
C:Willie Hunter
R:Reel
K:A
AF|"A"EC C/C/C C2 B,C|"A"A,B,CE "F#m"FECE|"Bm"FB B/B/B BcBA|"Bm"Bffe "E7
"f2 fg|!"A"ac c/c/c eA A/A/A|"A"cBAF EC C/C/C|"D"FAAF "Bm"Eaaf|"E7"ecBc
"
A"A2:||!eg|"A"ae e/e/e efed|"A"ce e/e/e fece|"Bm"bf f/f/f fgfe|"Bm"defd
"
E7"B2eg|!"A"ae e/e/e efed|"A"ce e/e/e fece|"D"fdge "Bm"afec|"E7"BABc "A"
A
2 eg|!"A"ae e/e/e efed|"A"ce e/e/e fece|"Bm"bf f/f/f fgfe| "Bm"defd "E7"
B
2eg|!"A"ae e/e/e efed|"A"ce e/e/e fece|"D"fdec dBcA|"Bm"Bagf "E7"eAGF|!|
|:"
A"EC C/C/C C2 B,C|"A"A,B,CE "F#m"FECE|"Bm"FB B/B/B BcBA|"Bm"Bffe "E7"f2
fg|!"A"ac c/c/c eA A/A/A|"A"cBAF EC C/C/C|"D"FAAF "Bm"Eaaf|"E7"ecBc "A"A
2
:||!eg|"A"ae e/e/e efed|"A"ce e/e/e fece|"Bm"bf f/f/f fgfe|"Bm"defd "E7"
B
2eg|!"A"ae e/e/e efed|"A"ce e/e/e fece|"D"fdge "Bm"afec|"E7"BABc "A"A2 e
g
|!"A"ae e/e/e efed|"A"ce e/e/e fece|"Bm"bf f/f/f fgfe| "Bm"defd "E7"B2 e
d
|!"A"cdBc ABGA|"D"FGEF DECD|"Bm"B,CDE F^ABc|"E7"defg "A"a2||
